X: 34
T:Drunken Sailor
R:hornpipe
H:See also "Johnnie Cope", #29
D:Noel Hill: The Irish Concertina
D:Sean Keane, Matt Molloy, Liam O'Flynn: The Fire Aflame
Z:id:hn-hornpipe-62 "Version 2:"
M:C|
K:Ador
AB|A2AG ABcd|edcB AGEF|G2GF GABc|dBGB edcB|
AECE ABcd|edcB AGEF|G2ag edcB|c2A2 A2:|
|:zB|c2cB cdef|gdBc dBGA|(3BAG dG eGdc|BGGd eGdB|
c2cB cdef|gdBc dBGB|Aaag edcB|c2A2 A2:|
|:(3Bcd|eaag a2c'a|bagf ~e3f|gdad bdad|~g3a bagf|
eaag a2c'a|bagf ~e3d|egfa gedB|c2A2 A2:|
|:zG|EAcA EAcA|DGBG DGBG|EAcA EAcA|ede=f edcB|
Acec Acec|d2BG DGBd|egfa gedB|c2A2 A2:|
|:ze|ae (3abc' ae (3abc'|gd (3gab gd (3gab|ae (3abc' ae (3abc'|gedB eBdB|
cAcA BGBd|cBce d3=f|(3efg fa gedB|c2A2 A2:|
